X: 44
T:Coleraine's Jig
R:Jig
C:Trad, arr Phil Ro
M:6/8
L:1/8
Q:3/8=120
K:Am
E|EAA ABc|Bee e2d|cBA ABc|B^GE E2E|
EAA ABc|Bee e2d|cBA ^GAB|cAA A2:|
|:B|c2c cdc|Bdg g2^g|aed cBA|^GBG E^FG|
A^GA BAB|cde fed|cBA ^GAB|cAA A2:|
